optimized/24/outline/grade.svg

<svg viewBox="0 0 24 24" xmlns="http://www.w3.org/2000/svg" fill="currentColor" data-slot="icon">
  <g clip-path="url(#clip0_2208_12348)">
    <path d="M12.1221 13.2492C12.5144 12.7739 12.75 12.1644 12.75 11.5C12.75 9.98122 11.5188 8.75 10 8.75C8.48122 8.75 7.25 9.98122 7.25 11.5C7.25 12.1644 7.48565 12.7739 7.87793 13.2492C6.31983 14.0286 5.25 15.6393 5.25 17.5C5.25 17.9142 5.58579 18.25 6 18.25C6.41421 18.25 6.75 17.9142 6.75 17.5C6.75 15.7051 8.20507 14.25 10 14.25C11.7949 14.25 13.25 15.7051 13.25 17.5C13.25 17.9142 13.5858 18.25 14 18.25C14.4142 18.25 14.75 17.9142 14.75 17.5C14.75 15.6393 13.6802 14.0286 12.1221 13.2492ZM10 10.25C10.6904 10.25 11.25 10.8096 11.25 11.5C11.25 12.1904 10.6904 12.75 10 12.75C9.30964 12.75 8.75 12.1904 8.75 11.5C8.75 10.8096 9.30964 10.25 10 10.25Z"/>
    <path d="M18 11.25C18.4142 11.25 18.75 10.9142 18.75 10.5C18.75 10.0858 18.4142 9.75 18 9.75H16C15.5858 9.75 15.25 10.0858 15.25 10.5C15.25 10.9142 15.5858 11.25 16 11.25H18Z"/>
    <path d="M18.75 13.5C18.75 13.9142 18.4142 14.25 18 14.25H16C15.5858 14.25 15.25 13.9142 15.25 13.5C15.25 13.0858 15.5858 12.75 16 12.75H18C18.4142 12.75 18.75 13.0858 18.75 13.5Z"/>
    <path d="M8 2.5C8.41421 2.5 8.75 2.83579 8.75 3.25V4.5H15.25V3.25C15.25 2.83579 15.5858 2.5 16 2.5C16.4142 2.5 16.75 2.83579 16.75 3.25V4.5H19C20.6569 4.5 22 5.84315 22 7.5V18.5C22 20.1569 20.6569 21.5 19 21.5H5C3.34315 21.5 2 20.1569 2 18.5V7.5C2 5.84315 3.34315 4.5 5 4.5H7.25V3.25C7.25 2.83579 7.58579 2.5 8 2.5ZM19 6H5C4.17157 6 3.5 6.67157 3.5 7.5V18.5C3.5 19.3284 4.17157 20 5 20H19C19.8284 20 20.5 19.3284 20.5 18.5V7.5C20.5 6.67157 19.8284 6 19 6Z"/>
  </g>
  <defs>
    <clipPath id="clip0_2208_12348">
      <rect width="24" height="24"/>
    </clipPath>
  </defs>
</svg>

<svg xmlns="http://www.w3.org/2000/svg" viewBox="0 0 24 24" fill="currentColor" data-slot="icon">
  <g clip-path="url(#a)">
    <path d="M12.122 13.25a2.75 2.75 0 1 0-4.244 0A4.75 4.75 0 0 0 5.25 17.5a.75.75 0 0 0 1.5 0 3.25 3.25 0 0 1 6.5 0 .75.75 0 0 0 1.5 0 4.75 4.75 0 0 0-2.628-4.25Zm-2.122-3a1.25 1.25 0 1 1 0 2.5 1.25 1.25 0 0 1 0-2.5Z"/>
    <path d="M18 11.25a.75.75 0 0 0 0-1.5h-2a.75.75 0 0 0 0 1.5h2Z"/>
    <path d="M18.75 13.5a.75.75 0 0 1-.75.75h-2a.75.75 0 0 1 0-1.5h2a.75.75 0 0 1 .75.75Z"/>
    <path d="M8 2.5a.75.75 0 0 1 .75.75V4.5h6.5V3.25a.75.75 0 0 1 1.5 0V4.5H19a3 3 0 0 1 3 3v11a3 3 0 0 1-3 3H5a3 3 0 0 1-3-3v-11a3 3 0 0 1 3-3h2.25V3.25A.75.75 0 0 1 8 2.5ZM19 6H5a1.5 1.5 0 0 0-1.5 1.5v11A1.5 1.5 0 0 0 5 20h14a1.5 1.5 0 0 0 1.5-1.5v-11A1.5 1.5 0 0 0 19 6Z"/>
  </g>
  <defs>
    <clipPath id="a">
      <rect width="24" height="24"/>
    </clipPath>
  </defs>
</svg>
